src/images/crypto-icon-svg/hsr.svg

<svg xmlns="http://www.w3.org/2000/svg" width="32" height="32" viewBox="0 0 32 32">
  <g fill="none">
    <circle cx="16" cy="16" r="16" fill="#56428E"/>
    <path fill="#FFF" d="M10.7493987,7.5 L15.1036605,7.5 C14.5800579,8.33007812 14.2586363,9.24670573 14.2786564,10.2400326 C15.5743529,10.2533138 16.8733494,10.2533138 18.1690458,10.2400326 C18.1856559,9.25334635 17.9205546,8.31004557 17.3538318,7.5 L21.7379037,7.5 C21.4363922,8.13329427 20.9226896,8.71999349 20.9724099,9.46330078 C20.9524998,12.7866016 20.9790099,16.1133333 20.9691098,19.4366341 C21.399872,19.4366341 21.8340442,19.4366341 22.2681063,19.4399544 C22.5862279,18.8099805 22.8679393,18.167168 23.0931105,17.5000065 C24.395407,17.5332096 25.7044135,17.4633724 27,17.6366927 C25.7176136,18.7434635 25.0481502,20.3167383 24.2131361,21.7500065 C20.8993695,21.7566471 17.5856029,21.7400456 14.2685363,21.7599674 C14.1127756,22.97 14.8583593,23.8032878 15.7232936,24.5 L10.1260256,24.5 C10.6131081,23.8566341 11.593983,23.4433659 11.4913525,22.4999544 C11.5243526,19.2866667 11.4913525,16.0696159 11.5012525,12.8533398 L14.3414667,12.8533398 L14.3414667,14.8333529 L18.1092055,14.8333529 L18.1092055,12.5633659 L10.2422962,12.5633659 C9.58962628,13.7100543 8.93790969,14.855599 8.28714644,16 C8.93666302,17.1466884 9.58933295,18.2922331 10.2451562,19.4366341 L11.2131611,19.4366341 L11.2131611,21.7497852 L8.25414627,21.7497852 C7.17383087,19.8299805 6.05380527,17.9333073 5,16 L5,15.9966797 C6.05710529,14.0666927 7.1804309,12.1700195 8.25414627,10.2499935 C9.35767179,10.2499935 10.4610873,10.2499935 11.5646128,10.2400326 C11.5712129,9.25666667 11.3028115,8.3166862 10.7493987,7.5 Z M14.3415767,17.1666471 L14.3415767,19.4366341 L18.1093155,19.4366341 L18.1093155,17.1666471 L14.3415767,17.1666471 Z M21.2573113,10.2499935 L24.206096,10.2499935 C25.0147101,11.5500065 25.5714229,13.0501237 26.7378687,14.0904883 C26.7610788,14.1671875 26.803869,14.3237956 26.8272991,14.4003841 C25.5813229,14.5637435 24.3192866,14.4370182 23.0628603,14.4999935 C22.9037995,13.8067122 22.5889779,13.169987 22.2410462,12.5600456 C21.992555,12.5600456 21.5020625,12.5633659 21.2568713,12.5633659 L21.2573113,10.2499935 Z M18.2119461,22.0399805 C19.0834804,22.0433008 19.9583148,22.0399805 20.8299591,22.0366602 C20.8100491,23.1499609 21.5889629,23.8400326 22.3543468,24.5 L16.7174786,24.5 C17.4398522,23.8138021 18.2848764,23.1633529 18.2119461,22.0399805 Z"/>
  </g>
</svg>

<svg xmlns="http://www.w3.org/2000/svg" width="32" height="32"><g fill="none"><circle cx="16" cy="16" r="16" fill="#56428E"/><path fill="#FFF" d="M10.75 7.5h4.354c-.524.83-.845 1.747-.825 2.74 1.295.013 2.594.013 3.89 0 .017-.987-.248-1.93-.815-2.74h4.384c-.302.633-.815 1.22-.766 1.963-.02 3.324.007 6.65-.003 9.974.43 0 .865 0 1.3.003.317-.63.599-1.273.824-1.94 1.302.033 2.611-.037 3.907.137-1.282 1.106-1.952 2.68-2.787 4.113-3.314.007-6.627-.01-9.944.01-.156 1.21.59 2.043 1.454 2.74h-5.597c.487-.643 1.468-1.057 1.365-2 .033-3.213 0-6.43.01-9.647h2.84v1.98h3.768v-2.27h-7.867L8.287 16c.65 1.147 1.302 2.292 1.958 3.437h.968v2.313H8.254C7.174 19.83 6.054 17.933 5 16v-.003c1.057-1.93 2.18-3.827 3.254-5.747 1.104 0 2.207 0 3.31-.01a4.772 4.772 0 0 0-.815-2.74zm3.592 9.667v2.27h3.767v-2.27h-3.767zm6.915-6.917h2.95c.808 1.3 1.364 2.8 2.53 3.84.024.077.067.234.09.31-1.246.164-2.508.037-3.764.1-.16-.693-.474-1.33-.822-1.94l-.984.003V10.25zm-3.045 11.79c.871.003 1.746 0 2.618-.003-.02 1.113.759 1.803 1.524 2.463h-5.637c.723-.686 1.568-1.337 1.495-2.46z"/></g></svg>
